X:14
T:Alunelul
O:Traditional Rumanian
M:2/2
L:1/4
%%MIDI gchord bc
S:Colin Hume's website,  colinhume.com  - chords can also be printed below the stave.
Q:1/2=170
K:G
|: "G"d^c de | "D7"d=c BA | "G"G2 A2 | B4 | "G"d^c de | "D"d=c BA | "Em"G2 "B7"F2 | "Em"E4 :|
|: "G"G2 B2 | "D"A2 z2 | "Em"G2 B2 | "D"d2 z2 | "G"G2 B2 | "D"A2 z2 | "Em"G2 "B7"F2 | "Em"E2 z2 :|

